!!!OTL: "Die Spinnerin" SPINN SPINN MEIN SCHOEINS NANNERL
!!!ARE: Europa, Mitteleuropa, Deutschland, Boehmen
!!!SCT: Z1229
!!!YEM: Copyright 1995, estate of Helmut Schaffrath.
**kern
*ICvox
*Ivox
*M3/4
*k[f#]
*G:
{4dd
=1
4gg
4dd
8dd
8ee
=2
8dd
8cc
4b}
{4dd
=3
4ee
4ee
8dd
8cc
=4
2b}
{8g
8b
=5
4b
4a
8a
8cc
=6
4cc
4b}
{8dd
8gg
=7
8ee
8cc
4b
4a
=8
2g}
{4b
=9
4a
4a
8b
8cc#
=10
4dd
4dd}
{4b
=11
4a
4a
8b
8cc#
=12
4dd
4dd}
{4ee
=13
2dd
4cc#
=14
2dd}
{8dd
8gg
=15
8ee
8cc
4b
4a
=16
2g}
==
!!!AGN: Liebes - Lied
!!!ONB: ESAC (Essen Associative Code) Database: ZUCCAL
!!!AMT: simple triple
!!!AIN: vox
!!!EED: Helmut Schaffrath
!!!EEV: 1.0
*-
